dist/images/badges/untappd.svg

<svg id="Layer_1" xmlns="http://www.w3.org/2000/svg" viewBox="0 0 129 142" enable-background="new 0 0 129 142"><style>.st0{filter:url(#filter-2)}.st1{fill:#ffcf0b}.st2{fill:url(#Combined-Shape_4_)}.st3{fill:url(#Combined-Shape_5_)}.st4{fill:url(#Combined-Shape_6_)}.st5{fill:url(#Combined-Shape_7_)}.st6,.st7{opacity:.2295;fill:url(#Hex-Shade-Bottom-Left_1_);enable-background:new}.st7{opacity:.1036;fill:url(#Hex-Shade-Top-Right_1_)}</style><filter filterUnits="objectBoundingBox" height="200%" id="filter-2" width="200%" x="-50%" y="-50%"><feOffset dx="7" in="SourceAlpha" result="shadowOffsetOuter1"/><feGaussianBlur in="shadowOffsetOuter1" result="shadowBlurOuter1" stdDeviation="7.5"/><feColorMatrix in="shadowBlurOuter1" values="0 0 0 0 0 0 0 0 0 0 0 0 0 0 0 0 0 0 0.75 0"/></filter><title>Group 3</title><g id="Page-1"><g id="Untappd-Badge" transform="translate(-13.463 -6.934)"><g id="Group-3"><g id="Hex"><g class="st0" transform="rotate(60 75.043 72.383)"><path id="path-1_2_" d="M76.4 12.3L126 40.9v57.2l-49.6 28.6-49.5-28.6V40.9z"/></g><g transform="rotate(60 75.043 72.383)"><path id="path-1_1_" class="st1" d="M76.4 12.3L126 40.9v57.2l-49.6 28.6-49.5-28.6V40.9z"/></g></g><g id="Untappd-Logo" transform="rotate(33 -31.74 135.085)"><g id="Group" transform="rotate(-68 12.04 8.025)"><linearGradient id="Combined-Shape_4_" gradientUnits="userSpaceOnUse" x1="-471.876" y1="176.076" x2="-470.61" y2="175.267" gradientTransform="matrix(6.6246 32.0909 4.6386 -45.8305 2311.442 23219.836)"><stop offset="0" stop-color="#744019"/><stop offset="1" stop-color="#8e4e22"/></linearGradient><path id="Combined-Shape" class="st2" d="M10.8 57.5H10c-3.9 0-7.1-2-7.3-4.4V28.4c.2-1.1.3-1.3.3-1.4l2.6-4.4h5.2v4.9H2.9h7.9v30zm0-55.9c-1.5 0-2.7.4-2.7 1 0 .2.2.4.4.5l-.1.5c-.2.2-.3.3-.3.5s.2.4.5.5l-2.9 18h5.2l-.1-21z"/><linearGradient id="Combined-Shape_5_" gradientUnits="userSpaceOnUse" x1="-474.775" y1="174.047" x2="-473.509" y2="173.237" gradientTransform="matrix(-6.6246 32.0909 -4.6386 -45.8305 -2318.53 23219.836)"><stop offset="0" stop-color="#744019"/><stop offset="1" stop-color="#8e4e22"/></linearGradient><path id="Combined-Shape_1_" class="st3" d="M10.7 57.5h.8c3.9 0 7.1-2 7.3-4.4V28.4c-.2-1.1-.3-1.3-.3-1.4l-2.6-4.4h-5.2 5.2L13 4.6c.3-.2.5-.3.5-.5s-.1-.3-.3-.4l-.2-.6c.3-.2.4-.3.4-.5 0-.5-1.2-1-2.7-1v55.9zm0-30h7.9-7.9v30.1-30.1z"/></g><g id="Group-2" transform="translate(9.305 -2.017)"><linearGradient id="Combined-Shape_6_" gradientUnits="userSpaceOnUse" x1="17.906" y1="500.969" x2="19.172" y2="500.159" gradientTransform="matrix(6.7824 -30.4718 -4.4045 -46.9225 2087.095 24056.096)"><stop offset="0" stop-color="#dd7d27"/><stop offset="1" stop-color="#935022"/></linearGradient><path id="Combined-Shape_2_" class="st4" d="M10.6 54h-.8c-3.9 0-7.1-2-7.3-4.4V24.9c.2-1.1.3-1.3.3-1.4L5.4 19h5.2v4.9H2.7h7.9V54zm0-55.9c-1.5 0-2.7.4-2.7 1 0 .2.2.4.4.5l-.1.5c-.2.1-.3.3-.3.4 0 .2.2.4.5.5l-3 18h5.2V-1.9z"/><linearGradient id="Combined-Shape_7_" gradientUnits="userSpaceOnUse" x1="-61.14" y1="552.302" x2="-59.874" y2="551.493" gradientTransform="matrix(-6.7824 -30.4718 4.4046 -46.9225 -2828.211 24056.094)"><stop offset="0" stop-color="#dd7d27"/><stop offset="1" stop-color="#935022"/></linearGradient><path id="Combined-Shape_3_" class="st5" d="M10.5 54h.8c3.9 0 7.1-2 7.3-4.4V24.9c0-.3-.1-.6-.2-.9h-7.9 7.9c0-.2-.1-.4-.1-.5L15.7 19h-5.2v35zm0-55.9c1.5 0 2.7.4 2.7 1 0 .2-.2.4-.4.5l.1.5c.2.1.3.3.3.4 0 .2-.2.4-.5.5l2.9 18h-5.2l.1-20.9z"/></g></g><linearGradient id="Hex-Shade-Bottom-Left_1_" gradientUnits="userSpaceOnUse" x1="-222.165" y1="471.166" x2="-222.165" y2="470.416" gradientTransform="matrix(50.1177 0 0 -85.9282 11187.54 40530.285)"><stop offset="0" stop-color="#a8a8a8"/><stop offset="1" stop-color="#393939"/></linearGradient><path id="Hex-Shade-Bottom-Left" class="st6" d="M78.2 129.4l-.6.3-49.5-28.6V43.9l.2-.1 49.9 28.8v56.8z"/><linearGradient id="Hex-Shade-Top-Right_1_" gradientUnits="userSpaceOnUse" x1="-223.722" y1="470.666" x2="-222.598" y2="470.666" gradientTransform="matrix(50.1177 0 0 -85.9282 11237.658 40501.02)"><stop offset="0" stop-color="#fff"/><stop offset="1" stop-color="#393939"/></linearGradient><path id="Hex-Shade-Top-Right" class="st7" d="M128.3 100.1l-.6.3-49.5-28.5V14.7l.2-.1 49.9 28.8v56.7z"/></g></g></g></svg>

<?xml version="1.0" encoding="utf-8"?>
<!-- Generator: Adobe Illustrator 21.0.0, SVG Export Plug-In . SVG Version: 6.00 Build 0)  -->
<svg version="1.1" id="Layer_1" xmlns="http://www.w3.org/2000/svg" xmlns:xlink="http://www.w3.org/1999/xlink" x="0px" y="0px"
	 viewBox="0 0 129 142" style="enable-background:new 0 0 129 142;" xml:space="preserve">
<style type="text/css">
	.st0{filter:url(#filter-2);}
	.st1{fill:#FFCF0B;}
	.st2{fill:url(#Combined-Shape_4_);}
	.st3{fill:url(#Combined-Shape_5_);}
	.st4{fill:url(#Combined-Shape_6_);}
	.st5{fill:url(#Combined-Shape_7_);}
	.st6{opacity:0.2295;fill:url(#Hex-Shade-Bottom-Left_1_);enable-background:new    ;}
	.st7{opacity:0.1036;fill:url(#Hex-Shade-Top-Right_1_);enable-background:new    ;}
</style>
<filter  filterUnits="objectBoundingBox" height="200%" id="filter-2" width="200%" x="-50%" y="-50%">
	<feOffset  dx="7" dy="0" in="SourceAlpha" result="shadowOffsetOuter1"></feOffset>
	<feGaussianBlur  in="shadowOffsetOuter1" result="shadowBlurOuter1" stdDeviation="7.5"></feGaussianBlur>
	<feColorMatrix  in="shadowBlurOuter1" type="matrix" values="0 0 0 0 0   0 0 0 0 0   0 0 0 0 0  0 0 0 0.75 0"></feColorMatrix>
</filter>
<title>Group 3</title>
<desc>Created with Sketch.</desc>
<g id="Page-1">
	<g id="Untappd-Badge" transform="translate(-13.463323, -6.934082)">
		<g id="Group-3">
			<g id="Hex" transform="translate(75.043116, 72.382884) rotate(-300.000000) translate(-75.043116, -72.382884) ">
				<g class="st0">
					<polygon id="path-1_2_" points="76.4,12.3 126,40.9 126,98.1 76.4,126.7 26.9,98.1 26.9,40.9 					"/>
				</g>
				<g>
					<polygon id="path-1_1_" class="st1" points="76.4,12.3 126,40.9 126,98.1 76.4,126.7 26.9,98.1 26.9,40.9 					"/>
				</g>
			</g>
			
				<g id="Untappd-Logo" transform="translate(77.670534, 79.049032) rotate(33.000000) translate(-77.670534, -79.049032) translate(48.170534, 50.549032)">
				
					<g id="Group" transform="translate(29.234042, 18.789337) rotate(-68.000000) translate(-29.234042, -18.789337) translate(20.734042, -9.210663)">
					
						<linearGradient id="Combined-Shape_4_" gradientUnits="userSpaceOnUse" x1="-471.8759" y1="176.0764" x2="-470.6098" y2="175.2669" gradientTransform="matrix(6.6246 32.0909 4.6386 -45.8305 2311.4424 23219.8359)">
						<stop  offset="0" style="stop-color:#744019"/>
						<stop  offset="1" style="stop-color:#8E4E22"/>
					</linearGradient>
					<path id="Combined-Shape" class="st2" d="M10.8,57.5c-0.3,0-0.5,0-0.8,0c-3.9,0-7.1-2-7.3-4.4h0l0-24.7C2.9,27.3,3,27.1,3,27
						l2.6-4.4h5.2v4.9H2.9l0,0h7.9L10.8,57.5z M10.8,1.6c-1.5,0-2.7,0.4-2.7,1c0,0.2,0.2,0.4,0.4,0.5L8.4,3.6
						C8.2,3.8,8.1,3.9,8.1,4.1c0,0.2,0.2,0.4,0.5,0.5l-2.9,18h5.2L10.8,1.6z"/>
					
						<linearGradient id="Combined-Shape_5_" gradientUnits="userSpaceOnUse" x1="-474.7748" y1="174.0466" x2="-473.5087" y2="173.237" gradientTransform="matrix(-6.6246 32.0909 -4.6386 -45.8305 -2318.5303 23219.8359)">
						<stop  offset="0" style="stop-color:#744019"/>
						<stop  offset="1" style="stop-color:#8E4E22"/>
					</linearGradient>
					<path id="Combined-Shape_1_" class="st3" d="M10.7,57.5c0.3,0,0.5,0,0.8,0c3.9,0,7.1-2,7.3-4.4h0l0-24.7
						c-0.2-1.1-0.3-1.3-0.3-1.4l-2.6-4.4l-5.2,0l0,0l5.2,0L13,4.6c0.3-0.2,0.5-0.3,0.5-0.5c0-0.2-0.1-0.3-0.3-0.4L13,3.1
						c0.3-0.2,0.4-0.3,0.4-0.5c0-0.5-1.2-1-2.7-1l0,21L10.7,57.5z M10.7,27.5h7.9l0,0H10.7l0,30.1L10.7,27.5z"/>
				</g>
				<g id="Group-2" transform="translate(9.305132, -2.017227)">
					
						<linearGradient id="Combined-Shape_6_" gradientUnits="userSpaceOnUse" x1="17.9064" y1="500.9691" x2="19.1725" y2="500.1595" gradientTransform="matrix(6.7824 -30.4718 -4.4045 -46.9225 2087.0955 24056.0957)">
						<stop  offset="0" style="stop-color:#DD7D27"/>
						<stop  offset="1" style="stop-color:#935022"/>
					</linearGradient>
					<path id="Combined-Shape_2_" class="st4" d="M10.6,54c-0.3,0-0.5,0-0.8,0c-3.9,0-7.1-2-7.3-4.4h0l0-24.7
						c0.2-1.1,0.3-1.3,0.3-1.4L5.4,19h5.2l0,4.9l-7.9,0l0,0l7.9,0L10.6,54z M10.6-1.9c-1.5,0-2.7,0.4-2.7,1c0,0.2,0.2,0.4,0.4,0.5
						L8.2,0.1C8,0.2,7.9,0.4,7.9,0.5c0,0.2,0.2,0.4,0.5,0.5L5.4,19h5.2L10.6-1.9z"/>
					
						<linearGradient id="Combined-Shape_7_" gradientUnits="userSpaceOnUse" x1="-61.1399" y1="552.3023" x2="-59.8738" y2="551.4927" gradientTransform="matrix(-6.7824 -30.4718 4.4046 -46.9225 -2828.2112 24056.0938)">
						<stop  offset="0" style="stop-color:#DD7D27"/>
						<stop  offset="1" style="stop-color:#935022"/>
					</linearGradient>
					<path id="Combined-Shape_3_" class="st5" d="M10.5,54c0.3,0,0.5,0,0.8,0c3.9,0,7.1-2,7.3-4.4h0l0-24.7c0-0.3-0.1-0.6-0.2-0.9
						l-7.9,0l0,0l7.9,0c0-0.2-0.1-0.4-0.1-0.5L15.7,19l-5.2,0l0,4.9L10.5,54z M10.5-1.9c1.5,0,2.7,0.4,2.7,1c0,0.2-0.2,0.4-0.4,0.5
						l0.1,0.5c0.2,0.1,0.3,0.3,0.3,0.4c0,0.2-0.2,0.4-0.5,0.5l2.9,18l-5.2,0L10.5-1.9z"/>
				</g>
			</g>
			
				<linearGradient id="Hex-Shade-Bottom-Left_1_" gradientUnits="userSpaceOnUse" x1="-222.1647" y1="471.1663" x2="-222.1647" y2="470.4163" gradientTransform="matrix(50.1177 0 0 -85.9282 11187.5391 40530.2852)">
				<stop  offset="0" style="stop-color:#A8A8A8"/>
				<stop  offset="1" style="stop-color:#393939"/>
			</linearGradient>
			<path id="Hex-Shade-Bottom-Left" class="st6" d="M78.2,129.4l-0.6,0.3l-49.5-28.6V43.9l0.2-0.1l49.9,28.8V129.4z"/>
			
				<linearGradient id="Hex-Shade-Top-Right_1_" gradientUnits="userSpaceOnUse" x1="-223.7217" y1="470.6663" x2="-222.5977" y2="470.6663" gradientTransform="matrix(50.1177 0 0 -85.9282 11237.6582 40501.0195)">
				<stop  offset="0" style="stop-color:#FFFFFF"/>
				<stop  offset="1" style="stop-color:#393939"/>
			</linearGradient>
			<path id="Hex-Shade-Top-Right" class="st7" d="M128.3,100.1l-0.6,0.3L78.2,71.9V14.7l0.2-0.1l49.9,28.8V100.1z"/>
		</g>
	</g>
</g>
</svg>
